Sources/FrostedUI/Resources/Icons.xcassets/cameraFilled24.imageset/camera-filled-24.svg

<svg width="24" height="24" viewBox="0 0 24 24" fill="none" xmlns="http://www.w3.org/2000/svg" data-fui-icon="true">
  <path
    d="M14.1475 1.25C15.5523 1.25003 16.871 1.92817 17.6875 3.07129L18.2217 3.82031C18.6386 4.40382 19.3121 4.75 20.0293 4.75C22.0841 4.75019 23.7498 6.4159 23.75 8.4707V18.4004C23.7498 20.8025 21.8025 22.7498 19.4004 22.75H4.59961C2.19748 22.7498 0.250211 20.8025 0.25 18.4004V8.4707C0.250186 6.4159 1.9159 4.75019 3.9707 4.75C4.68787 4.75 5.36139 4.40382 5.77832 3.82031L6.3125 3.07129C7.12903 1.92817 8.44775 1.25003 9.85254 1.25H14.1475ZM12 7.5C9.1005 7.5 6.75 9.8505 6.75 12.75C6.75 15.6495 9.1005 18 12 18C14.8995 18 17.25 15.6495 17.25 12.75C17.25 9.8505 14.8995 7.5 12 7.5ZM12 9C14.0711 9 15.75 10.6789 15.75 12.75C15.75 14.8211 14.0711 16.5 12 16.5C9.92893 16.5 8.25 14.8211 8.25 12.75C8.25 10.6789 9.92893 9 12 9Z"
    fill="currentColor"
  />
</svg>

<svg xmlns="http://www.w3.org/2000/svg" width="24" height="24" fill="none" data-fui-icon="true" viewBox="0 0 24 24"><path fill="currentColor" d="M14.148 1.25a4.35 4.35 0 0 1 3.54 1.821l.534.75c.417.583 1.09.929 1.807.929a3.72 3.72 0 0 1 3.721 3.72v9.93a4.35 4.35 0 0 1-4.35 4.35H4.6A4.35 4.35 0 0 1 .25 18.4V8.47a3.72 3.72 0 0 1 3.72-3.72c.718 0 1.391-.346 1.808-.93l.535-.749a4.35 4.35 0 0 1 3.54-1.821zM12 7.5A5.25 5.25 0 1 0 12 18a5.25 5.25 0 0 0 0-10.5M12 9a3.75 3.75 0 1 1 0 7.5A3.75 3.75 0 0 1 12 9"/></svg>
